.gitbook/assets/Contact Support.svg

<svg width="404" height="251" viewBox="0 0 404 251" fill="none" xmlns="http://www.w3.org/2000/svg">
<rect width="404" height="251" fill="#7C92FF"/>
<path fill-rule="evenodd" clip-rule="evenodd" d="M236.564 92.5579C235.142 92.9569 233.71 93.776 232.867 94.399C231.639 95.3066 229.908 95.0469 229 93.8189C228.092 92.5909 228.352 90.8597 229.58 89.952C230.812 89.0416 232.843 87.8584 235.07 87.2337C237.218 86.6309 240.293 86.3617 242.751 88.4413C244.111 89.5919 244.81 91.3405 245.219 92.8262C245.656 94.4121 245.9 96.2271 246.029 98.0089C246.289 101.582 246.118 105.41 245.882 107.864C245.736 109.384 244.385 110.497 242.865 110.351C241.345 110.205 240.231 108.854 240.377 107.334C240.592 105.098 240.745 101.593 240.514 98.4102C240.398 96.8143 240.191 95.3958 239.888 94.2949C239.737 93.748 239.578 93.3357 239.427 93.0434C239.284 92.767 239.187 92.6712 239.179 92.6629C239.178 92.6622 239.178 92.6622 239.179 92.6627C238.822 92.3611 238.064 92.1369 236.564 92.5579Z" fill="#013234"/>
<path fill-rule="evenodd" clip-rule="evenodd" d="M166.619 159.805C168.041 159.406 169.473 158.587 170.315 157.964C171.543 157.057 173.275 157.316 174.182 158.544C175.09 159.772 174.83 161.504 173.602 162.411C172.371 163.322 170.339 164.505 168.113 165.13C165.964 165.732 162.889 166.002 160.432 163.922C158.99 162.702 158.354 160.772 158.014 159.23C157.641 157.545 157.475 155.6 157.418 153.696C157.302 149.874 157.613 145.801 157.842 143.417C157.988 141.897 159.339 140.784 160.859 140.93C162.379 141.076 163.492 142.427 163.346 143.947C163.124 146.253 162.84 150.055 162.945 153.529C162.998 155.274 163.147 156.832 163.413 158.037C163.67 159.201 163.95 159.617 163.999 159.69C164.006 159.702 164.008 159.705 164.004 159.701C164.36 160.002 165.118 160.226 166.619 159.805Z" fill="#013234"/>
<path fill-rule="evenodd" clip-rule="evenodd" d="M235.372 161.399C234.968 159.959 234.139 158.509 233.508 157.656C232.601 156.428 232.86 154.697 234.088 153.789C235.316 152.882 237.048 153.141 237.955 154.369C238.873 155.611 240.066 157.66 240.696 159.905C241.304 162.071 241.574 165.165 239.482 167.637C238.258 169.084 236.244 169.76 234.639 170.145C232.861 170.571 230.781 170.812 228.728 170.94C224.615 171.199 220.223 171.03 217.725 170.79C216.205 170.644 215.091 169.293 215.237 167.773C215.383 166.253 216.734 165.139 218.254 165.285C220.493 165.501 224.59 165.66 228.382 165.422C230.282 165.302 232.009 165.089 233.35 164.767C234.69 164.446 235.171 164.124 235.25 164.071C235.26 164.065 235.263 164.062 235.261 164.065C235.574 163.695 235.798 162.917 235.372 161.399Z" fill="#013234"/>
<path fill-rule="evenodd" clip-rule="evenodd" d="M168.198 91.2355C168.603 92.6757 169.432 94.125 170.062 94.9782C170.97 96.2062 170.71 97.9375 169.482 98.8451C168.254 99.7528 166.523 99.4931 165.615 98.2651C164.697 97.023 163.504 94.9741 162.874 92.7295C162.266 90.5631 161.997 87.4689 164.088 84.9971C165.28 83.5883 167.168 82.8979 168.72 82.5C170.409 82.0673 172.363 81.8244 174.288 81.6946C178.148 81.4344 182.275 81.6052 184.763 81.8445C186.283 81.9907 187.397 83.3414 187.251 84.8614C187.105 86.3814 185.754 87.4951 184.234 87.349C181.986 87.1328 178.165 86.9756 174.66 87.2119C172.903 87.3304 171.322 87.5418 170.093 87.8567C169.481 88.0135 169.02 88.1805 168.694 88.3394C168.404 88.481 168.306 88.5751 168.303 88.5766C167.993 88.95 167.775 89.7272 168.198 91.2355Z" fill="#013234"/>
<path fill-rule="evenodd" clip-rule="evenodd" d="M202 166.47C224.351 166.47 242.47 148.351 242.47 126C242.47 103.649 224.351 85.5298 202 85.5298C179.649 85.5298 161.53 103.649 161.53 126C161.53 148.351 179.649 166.47 202 166.47ZM202 172C227.405 172 248 151.405 248 126C248 100.595 227.405 80 202 80C176.595 80 156 100.595 156 126C156 151.405 176.595 172 202 172Z" fill="#013234"/>
<path fill-rule="evenodd" clip-rule="evenodd" d="M202 145.906C212.993 145.906 221.905 136.994 221.905 126C221.905 115.007 212.993 106.095 202 106.095C191.006 106.095 182.094 115.007 182.094 126C182.094 136.994 191.006 145.906 202 145.906ZM202 151.436C216.047 151.436 227.435 140.048 227.435 126C227.435 111.953 216.047 100.565 202 100.565C187.952 100.565 176.564 111.953 176.564 126C176.564 140.048 187.952 151.436 202 151.436Z" fill="#013234"/>
<path fill-rule="evenodd" clip-rule="evenodd" d="M177.477 86.5282C178.592 85.4843 180.342 85.5417 181.385 86.6562L195.533 101.762C196.576 102.877 196.519 104.626 195.404 105.67C194.29 106.714 192.54 106.657 191.496 105.542L177.349 90.4362C176.305 89.3217 176.363 87.572 177.477 86.5282Z" fill="#013234"/>
<path fill-rule="evenodd" clip-rule="evenodd" d="M161.632 100.91C162.66 99.7811 164.409 99.6996 165.538 100.728L180.837 114.665C181.966 115.694 182.048 117.442 181.019 118.571C179.991 119.7 178.242 119.782 177.113 118.753L161.814 104.816C160.685 103.788 160.603 102.039 161.632 100.91Z" fill="#013234"/>
<path fill-rule="evenodd" clip-rule="evenodd" d="M222.669 132.003C223.687 130.865 225.435 130.768 226.573 131.786L241.996 145.586C243.134 146.604 243.232 148.352 242.213 149.49C241.195 150.628 239.447 150.725 238.309 149.707L222.886 135.907C221.748 134.889 221.651 133.141 222.669 132.003Z" fill="#013234"/>
<path fill-rule="evenodd" clip-rule="evenodd" d="M207.837 146.845C208.963 145.814 210.712 145.889 211.744 147.015L226.096 162.671C227.128 163.796 227.052 165.545 225.927 166.577C224.801 167.609 223.052 167.533 222.02 166.408L207.668 150.752C206.636 149.626 206.712 147.877 207.837 146.845Z" fill="#013234"/>
<path fill-rule="evenodd" clip-rule="evenodd" d="M194.875 146.905C196.032 147.902 196.162 149.647 195.166 150.805L182.023 166.066C181.026 167.223 179.281 167.354 178.124 166.357C176.966 165.361 176.836 163.615 177.833 162.458L190.975 147.196C191.972 146.039 193.718 145.909 194.875 146.905Z" fill="#013234"/>
<path fill-rule="evenodd" clip-rule="evenodd" d="M180.731 131.948C181.762 133.075 181.684 134.824 180.558 135.855L165.443 149.687C164.317 150.718 162.568 150.64 161.537 149.514C160.506 148.387 160.583 146.638 161.71 145.607L176.825 131.775C177.951 130.744 179.7 130.822 180.731 131.948Z" fill="#013234"/>
<path fill-rule="evenodd" clip-rule="evenodd" d="M209.51 105.46C208.301 104.527 208.078 102.79 209.011 101.582L220.917 86.158C221.85 84.9493 223.586 84.7258 224.795 85.6589C226.004 86.592 226.227 88.3283 225.294 89.5371L213.388 104.961C212.455 106.169 210.719 106.393 209.51 105.46Z" fill="#013234"/>
<path fill-rule="evenodd" clip-rule="evenodd" d="M222.963 120.024C221.93 118.899 222.005 117.15 223.129 116.117L237.741 102.697C238.866 101.664 240.615 101.739 241.648 102.863C242.681 103.988 242.606 105.737 241.482 106.77L226.87 120.19C225.745 121.223 223.996 121.148 222.963 120.024Z" fill="#013234"/>
</svg>

<svg xmlns="http://www.w3.org/2000/svg" width="404" height="251" fill="none" viewBox="0 0 404 251"><path fill="#7C92FF" d="M0 0h404v251H0z"/><path fill="#013234" fill-rule="evenodd" d="M236.564 92.558c-1.422.399-2.854 1.218-3.697 1.841a2.765 2.765 0 0 1-3.287-4.447c1.232-.91 3.263-2.094 5.49-2.718 2.148-.603 5.223-.872 7.681 1.207 1.36 1.15 2.059 2.9 2.468 4.385.437 1.586.681 3.401.81 5.183.26 3.573.089 7.401-.147 9.855a2.765 2.765 0 1 1-5.505-.53c.215-2.236.368-5.741.137-8.924-.116-1.596-.323-3.014-.626-4.115-.151-.547-.31-.96-.461-1.252-.143-.276-.24-.372-.248-.38-.001 0-.001 0 0 0-.357-.302-1.115-.526-2.615-.105Zm-69.945 67.247c1.422-.399 2.854-1.218 3.696-1.841a2.765 2.765 0 0 1 3.287 4.447c-1.231.911-3.263 2.094-5.489 2.719-2.149.602-5.224.872-7.681-1.208-1.442-1.22-2.078-3.15-2.418-4.692-.373-1.685-.539-3.63-.596-5.534-.116-3.822.195-7.895.424-10.279a2.765 2.765 0 1 1 5.504.53c-.222 2.306-.506 6.108-.401 9.582.053 1.745.202 3.303.468 4.508.257 1.164.537 1.58.586 1.653.007.012.009.015.005.011.356.301 1.114.525 2.615.104Zm68.753 1.594c-.404-1.44-1.233-2.89-1.864-3.743a2.766 2.766 0 0 1 4.447-3.287c.918 1.242 2.111 3.291 2.741 5.536.608 2.166.878 5.26-1.214 7.732-1.224 1.447-3.238 2.123-4.843 2.508-1.778.426-3.858.667-5.911.795-4.113.259-8.505.09-11.003-.15a2.765 2.765 0 0 1 .529-5.505c2.239.216 6.336.375 10.128.137 1.9-.12 3.627-.333 4.968-.655 1.34-.321 1.821-.643 1.9-.696.01-.006.013-.009.011-.006.313-.37.537-1.148.111-2.666Zm-67.174-70.163c.405 1.44 1.234 2.889 1.864 3.742a2.765 2.765 0 1 1-4.447 3.287c-.918-1.242-2.111-3.29-2.741-5.535-.608-2.167-.877-5.261 1.214-7.733 1.192-1.409 3.08-2.1 4.632-2.497 1.689-.433 3.643-.676 5.568-.805 3.86-.26 7.987-.09 10.475.15a2.765 2.765 0 0 1-.529 5.504c-2.248-.216-6.069-.373-9.574-.137-1.757.118-3.338.33-4.567.645-.612.156-1.073.323-1.399.482-.29.142-.388.236-.391.238-.31.373-.528 1.15-.105 2.659Z" clip-rule="evenodd"/><path fill="#013234" fill-rule="evenodd" d="M202 166.47c22.351 0 40.47-18.119 40.47-40.47S224.351 85.53 202 85.53s-40.47 18.119-40.47 40.47 18.119 40.47 40.47 40.47Zm0 5.53c25.405 0 46-20.595 46-46s-20.595-46-46-46-46 20.595-46 46 20.595 46 46 46Z" clip-rule="evenodd"/><path fill="#013234" fill-rule="evenodd" d="M202 145.906c10.993 0 19.905-8.912 19.905-19.906 0-10.993-8.912-19.905-19.905-19.905-10.994 0-19.906 8.912-19.906 19.905 0 10.994 8.912 19.906 19.906 19.906Zm0 5.53c14.047 0 25.435-11.388 25.435-25.436 0-14.047-11.388-25.435-25.435-25.435-14.048 0-25.436 11.388-25.436 25.435 0 14.048 11.388 25.436 25.436 25.436Z" clip-rule="evenodd"/><path fill="#013234" fill-rule="evenodd" d="M177.477 86.528a2.765 2.765 0 0 1 3.908.128l14.148 15.106a2.765 2.765 0 0 1-4.037 3.78l-14.147-15.106a2.765 2.765 0 0 1 .128-3.908Zm-15.845 14.382a2.765 2.765 0 0 1 3.906-.182l15.299 13.937a2.764 2.764 0 1 1-3.724 4.088l-15.299-13.937a2.764 2.764 0 0 1-.182-3.906Zm61.037 31.093a2.765 2.765 0 0 1 3.904-.217l15.423 13.8a2.764 2.764 0 1 1-3.687 4.121l-15.423-13.8a2.765 2.765 0 0 1-.217-3.904Zm-14.832 14.842a2.766 2.766 0 0 1 3.907.17l14.352 15.656a2.765 2.765 0 1 1-4.076 3.737l-14.352-15.656a2.766 2.766 0 0 1 .169-3.907Zm-12.962.06a2.766 2.766 0 0 1 .291 3.9l-13.143 15.261a2.764 2.764 0 1 1-4.19-3.608l13.142-15.262a2.766 2.766 0 0 1 3.9-.291Zm-14.144-14.957a2.766 2.766 0 0 1-.173 3.907l-15.115 13.832a2.765 2.765 0 1 1-3.733-4.08l15.115-13.832a2.765 2.765 0 0 1 3.906.173Zm28.779-26.488a2.765 2.765 0 0 1-.499-3.878l11.906-15.424a2.765 2.765 0 1 1 4.377 3.38l-11.906 15.423a2.765 2.765 0 0 1-3.878.499Zm13.453 14.564a2.766 2.766 0 0 1 .166-3.907l14.612-13.42a2.766 2.766 0 0 1 3.741 4.073l-14.612 13.42a2.766 2.766 0 0 1-3.907-.166Z" clip-rule="evenodd"/></svg>
